static/img/menus/ico-pdf.svg

<svg width="16" height="16" viewBox="0 0 16 16" fill="none" xmlns="http://www.w3.org/2000/svg">
<path d="M4.70118 12.7428C4.77118 12.8211 4.85712 12.8835 4.95322 12.9258C5.04932 12.9681 5.15337 12.9894 5.25837 12.9883C5.55165 12.974 5.83313 12.8684 6.06348 12.6863C6.30894 12.5072 6.57895 12.0285 6.83914 11.3805C7.25888 11.2627 7.70316 11.1547 8.11308 11.0712C8.53914 11.4974 9.07976 11.7907 9.6693 11.9156C9.80704 11.9319 9.94663 11.9106 10.0733 11.854C10.1999 11.7974 10.3088 11.7076 10.3885 11.594C10.46 11.4857 10.5007 11.36 10.5064 11.2303C10.512 11.1006 10.4823 10.9718 10.4204 10.8577C10.3198 10.6687 10.0449 10.3496 9.33057 10.3446C8.98194 10.3586 8.63486 10.3988 8.29227 10.4649C7.97738 10.1309 7.72023 9.74682 7.53134 9.32844C7.62461 9.01916 7.71543 8.70006 7.80625 8.3785L7.89953 8.0594C7.9689 7.83482 7.99146 7.5984 7.9658 7.36475C7.89217 6.84683 7.55834 6.64555 7.2687 6.66764C6.90296 6.69955 6.5495 7.07756 6.58386 7.74031C6.60818 8.29082 6.72433 8.83339 6.92751 9.34562C6.7385 9.96173 6.56668 10.4821 6.40958 10.9018C5.6732 11.1301 5.02519 11.3928 4.79691 11.6382C4.64403 11.776 4.54912 11.9666 4.53136 12.1716C4.51359 12.3767 4.57428 12.5808 4.70118 12.7428ZM9.32811 10.9018C9.77485 10.9018 9.89513 11.0663 9.92213 11.1154C9.93674 11.1385 9.94449 11.1653 9.94449 11.1927C9.94449 11.2201 9.93674 11.2469 9.92213 11.27C9.89894 11.2994 9.86812 11.3218 9.83305 11.3348C9.79798 11.3477 9.76001 11.3508 9.7233 11.3437C9.40131 11.2814 9.09905 11.1425 8.8421 10.9387C9.00238 10.9165 9.16387 10.9042 9.32566 10.9018H9.32811ZM7.31779 7.21993C7.33006 7.21993 7.38406 7.26657 7.4037 7.4163C7.41882 7.57348 7.40212 7.73209 7.35461 7.88267L7.26133 8.20914C7.24906 8.25332 7.23433 8.29996 7.22206 8.34659C7.18599 8.1372 7.16384 7.92564 7.15578 7.71331C7.13124 7.38193 7.25888 7.23466 7.31533 7.22975L7.31779 7.21993ZM7.2957 10.082C7.40539 10.2585 7.52676 10.4274 7.65898 10.5877C7.46752 10.6294 7.27361 10.676 7.07969 10.7251C7.15578 10.5189 7.22206 10.3029 7.2957 10.082ZM5.20928 12.0334C5.48857 11.8315 5.80208 11.6818 6.13467 11.5916C6.04815 11.8274 5.91166 12.0418 5.73457 12.22C5.39583 12.4654 5.18473 12.4433 5.12337 12.3721C5.062 12.301 5.08655 12.166 5.20928 12.031V12.0334Z" fill="#ff3426"/>
<path d="M8.6273 3.56009H8.38184V3.9921H8.6273C8.68839 3.99861 8.7497 3.98197 8.79912 3.94546C8.83715 3.901 8.85805 3.84442 8.85805 3.78592C8.85805 3.72741 8.83715 3.67083 8.79912 3.62637C8.75262 3.58281 8.691 3.55905 8.6273 3.56009Z" fill="#ff3426"/>
<path d="M10.1227 3.58008H9.92383V4.58156H10.1227C10.19 4.58556 10.2574 4.57611 10.3211 4.55378C10.3847 4.53144 10.4432 4.49666 10.4933 4.45146C10.5395 4.40246 10.575 4.34449 10.5978 4.28115C10.6206 4.21781 10.6302 4.15045 10.6258 4.08327C10.6306 4.01758 10.6212 3.95164 10.5982 3.88993C10.5752 3.82821 10.5392 3.77217 10.4926 3.7256C10.446 3.67903 10.39 3.64302 10.3283 3.62003C10.2666 3.59704 10.2006 3.5876 10.1349 3.59235L10.1227 3.58008Z" fill="#ff3426"/>
<path d="M13.0457 2.3844V1H4.78107L2 3.84489V14.7458H13.0457V5.82085H14.1184V2.3844H13.0457ZM4.6387 1.84684V3.12814C4.6387 3.45461 4.27051 3.70007 3.96369 3.70007H2.82966L4.6387 1.84684ZM12.5548 2.3844H6.26365V5.82085H12.5548V14.2549H2.49092V4.19099H3.96369C4.51597 4.19099 5.12962 3.75407 5.12962 3.12814V1.49092H12.5548V2.3844ZM12.2333 3.92098V4.24744H11.708V4.94455H11.2882V3.22633H12.41V3.56261H11.708V3.92098H12.2333ZM11.0526 4.08299C11.0562 4.24016 11.0171 4.39538 10.9397 4.53218C10.8665 4.66264 10.7563 4.76854 10.623 4.83655C10.4763 4.9107 10.3137 4.94779 10.1493 4.94455H9.50373V3.22633H10.1493C10.3145 3.22279 10.478 3.25988 10.6255 3.33433C10.7574 3.40219 10.8666 3.50713 10.9397 3.63625C11.0163 3.77251 11.0552 3.92669 11.0526 4.08299ZM9.28527 3.77616C9.28704 3.87148 9.26332 3.96555 9.21654 4.04862C9.16736 4.1349 9.09397 4.20488 9.00545 4.2499C8.89578 4.30424 8.7743 4.3304 8.65198 4.32599H8.38198V4.94455H7.97206V3.22633H8.65198C8.77208 3.22317 8.8913 3.24752 9.00054 3.29751C9.09041 3.33916 9.16506 3.40781 9.21409 3.49388C9.26146 3.58038 9.28596 3.67754 9.28527 3.77616Z" fill="#ff3426"/>
</svg>

<svg xmlns="http://www.w3.org/2000/svg" width="16" height="16" fill="none" viewBox="0 0 16 16"><path fill="#ff3426" d="M4.701 12.743a.74.74 0 0 0 .557.245c.294-.014.575-.12.805-.302.246-.179.516-.658.776-1.306.42-.117.864-.225 1.274-.309.426.426.967.72 1.556.845a.77.77 0 0 0 .72-.322.72.72 0 0 0 .031-.736c-.1-.19-.375-.508-1.09-.513a7 7 0 0 0-1.038.12 4.1 4.1 0 0 1-.76-1.137q.138-.465.274-.95L7.9 8.06c.069-.224.091-.46.066-.694-.074-.518-.408-.72-.697-.697-.366.032-.72.41-.685 1.072.024.55.14 1.093.344 1.606q-.284.925-.518 1.556c-.737.228-1.385.49-1.613.736a.813.813 0 0 0-.096 1.105m4.627-1.841c.447 0 .567.164.594.213a.14.14 0 0 1 0 .155.2.2 0 0 1-.199.074 2.04 2.04 0 0 1-.88-.405q.24-.034.483-.037zM7.318 7.22c.012 0 .066.047.086.196.015.157-.002.316-.05.467l-.093.326q-.02.067-.039.138a5 5 0 0 1-.066-.634c-.025-.331.103-.478.16-.483zm-.022 2.862q.164.264.363.506-.287.063-.58.137c.077-.206.143-.422.217-.643m-2.087 1.951c.28-.201.593-.351.926-.441-.087.235-.223.45-.4.628-.34.245-.55.223-.612.152s-.036-.206.086-.341zM8.627 3.56h-.245v.432h.245a.25.25 0 0 0 .172-.047.245.245 0 0 0 0-.319.25.25 0 0 0-.172-.066M10.123 3.58h-.2v1.002h.2a.5.5 0 0 0 .37-.13.5.5 0 0 0 .133-.369.458.458 0 0 0-.491-.49z"/><path fill="#ff3426" d="M13.046 2.384V1H4.78L2 3.845v10.9h11.046V5.822h1.072V2.384zm-8.407-.537v1.281c0 .327-.368.572-.675.572H2.83zm7.916.537H6.264v3.437h6.29v8.434H2.492V4.19h1.473c.552 0 1.166-.437 1.166-1.063V1.491h7.425zm-.322 1.537v.326h-.525v.698h-.42V3.226h1.122v.337h-.702v.358zm-1.18.162a.87.87 0 0 1-.113.45.76.76 0 0 1-.317.304c-.147.074-.31.11-.474.108h-.645V3.226h.645c.166-.003.329.034.477.108a.76.76 0 0 1 .314.302c.076.137.115.29.113.447m-1.768-.307a.508.508 0 0 1-.28.474.74.74 0 0 1-.353.076h-.27v.619h-.41V3.226h.68c.12-.003.24.022.349.072.09.041.164.11.213.196a.6.6 0 0 1 .071.282"/></svg>
